img/uber.svg

<svg width="96" height="21" viewBox="0 0 96 21" fill="none" xmlns="http://www.w3.org/2000/svg">
<path d="M15.0448 0.732513V12.0139C15.0448 15.7744 13.4209 17.3372 9.6 17.3372C5.77911 17.3372 4.15522 15.7744 4.15522 12.0139V0.244141H0.477612C0.143284 0.244141 0 0.390652 0 0.732513V12.1604C0 18.4604 3.91642 20.6581 9.6 20.6581C15.2836 20.6581 19.2 18.4604 19.2 12.1604V0.244141H15.5224C15.2358 0.244141 15.0448 0.390652 15.0448 0.732513Z" fill="white"/>
<path d="M68.394 3.51623C68.6806 3.51623 68.8239 3.41856 68.9194 3.17437L69.9701 0.488327C70.0179 0.341815 69.9701 0.244141 69.8269 0.244141H55.0209C53.6358 0.244141 53.1104 0.683676 53.1104 1.66042V19.1441C53.1104 19.9744 53.4925 20.3162 54.591 20.3162H68.394C68.6806 20.3162 68.8239 20.2186 68.9194 19.9744L69.9701 17.2883C70.0179 17.1418 69.9701 17.0441 69.8269 17.0441H57.1701V13.479C57.1701 12.2581 57.8388 11.672 59.606 11.672H65.0985C65.3851 11.672 65.5284 11.5744 65.6239 11.3302L66.6269 8.74181C66.6746 8.5953 66.6269 8.49763 66.4836 8.49763H57.1224V3.51623H68.394Z" fill="white"/>
<path fill-rule="evenodd" clip-rule="evenodd" d="M44.609 5.32321C44.609 7.22786 43.9403 8.83949 42.3164 9.71856C44.5134 10.3534 45.5164 12.3558 45.4687 14.7488C45.4687 18.7534 42.6985 20.3162 38.8299 20.3162H28.5612C27.4627 20.3162 27.0806 19.9744 27.0806 19.1441V1.66042C27.0806 0.683676 27.606 0.244141 28.991 0.244141H37.397C41.0746 0.244141 44.609 0.879024 44.609 5.32321ZM31.1881 3.4674H37.6836C39.8328 3.4674 40.4537 4.29763 40.4537 6.05577C40.4537 7.76507 39.8328 8.64414 37.6836 8.64414H31.1881V3.4674ZM38.4478 17.093H31.1881V13.4302C31.1881 12.2093 31.8567 11.6232 33.6239 11.6232H38.4478C40.7403 11.6232 41.409 12.5511 41.409 14.3581C41.409 16.2139 40.7403 17.093 38.4478 17.093Z" fill="white"/>
<path fill-rule="evenodd" clip-rule="evenodd" d="M91.2717 12.2581L95.6657 19.9744C95.7612 20.072 95.7612 20.3162 95.4269 20.3162H91.7015C91.4261 20.3162 91.3271 20.1809 91.1926 19.9969C91.1872 19.9895 91.1817 19.982 91.1761 19.9744L87.212 12.6488H83.5821C81.8149 12.6488 81.1463 13.2348 81.1463 14.4558V20.3162H77.5642C77.2299 20.3162 77.0866 20.1697 77.0866 19.8279V1.66042C77.0866 0.683676 77.612 0.244141 78.997 0.244141H87.403C92.2746 0.244141 95.2358 1.56275 95.2358 6.44647C95.2358 10.2069 93.4687 11.672 91.2717 12.2581ZM81.1463 9.57205H87.9761C90.5552 9.57205 91.0806 8.54647 91.0806 6.4953C91.0806 4.49298 90.5075 3.4674 87.9761 3.4674H81.1463V9.57205Z" fill="white"/>
</svg>

<svg width="96" height="21" fill="none" xmlns="http://www.w3.org/2000/svg"><path d="M15.045.733v11.28c0 3.761-1.624 5.324-5.445 5.324-3.82 0-5.445-1.563-5.445-5.323V.244H.478C.143.244 0 .391 0 .733V12.16c0 6.3 3.916 8.498 9.6 8.498 5.684 0 9.6-2.198 9.6-8.498V.244h-3.678c-.286 0-.477.147-.477.489ZM68.394 3.516c.287 0 .43-.097.525-.342L69.97.488c.048-.146 0-.244-.143-.244H55.02c-1.385 0-1.91.44-1.91 1.416v17.484c0 .83.382 1.172 1.48 1.172h13.803c.287 0 .43-.097.525-.342l1.051-2.686c.048-.146 0-.244-.143-.244H57.17V13.48c0-1.22.669-1.807 2.436-1.807h5.492c.287 0 .43-.098.526-.342l1.003-2.588c.048-.147 0-.244-.143-.244h-9.362V3.516h11.272Z" fill="#fff"/><path fill-rule="evenodd" clip-rule="evenodd" d="M44.609 5.323c0 1.905-.669 3.516-2.293 4.396 2.197.634 3.2 2.637 3.153 5.03 0 4.004-2.77 5.567-6.64 5.567H28.562c-1.098 0-1.48-.342-1.48-1.172V1.66c0-.976.525-1.416 1.91-1.416h8.406c3.678 0 7.212.635 7.212 5.08Zm-13.42-1.856h6.495c2.149 0 2.77.83 2.77 2.589 0 1.71-.621 2.588-2.77 2.588h-6.496V3.467Zm7.259 13.626h-7.26V13.43c0-1.22.669-1.807 2.436-1.807h4.824c2.292 0 2.961.928 2.961 2.735 0 1.856-.669 2.735-2.961 2.735ZM91.272 12.258l4.394 7.716c.095.098.095.342-.24.342h-3.725c-.275 0-.374-.135-.508-.32a6.033 6.033 0 0 0-.017-.022l-3.964-7.325h-3.63c-1.767 0-2.436.586-2.436 1.807v5.86h-3.582c-.334 0-.477-.146-.477-.488V1.66c0-.976.525-1.416 1.91-1.416h8.406c4.872 0 7.833 1.319 7.833 6.202 0 3.76-1.767 5.226-3.964 5.812ZM81.146 9.572h6.83c2.58 0 3.105-1.026 3.105-3.077 0-2.002-.574-3.028-3.105-3.028h-6.83v6.105Z" fill="#fff"/></svg>
